X:1
T:Omnipotens sempiterne Deus
T:#
%%score [ 1 2 3 4 ]
L:1/8
Q:1/4=100
M:2/2
K:C
V:1 treble nm="Soprano" snm="S"
V:2 treble nm="Alto" snm="A"
V:3 treble-8 nm="Tenor" snm="T"
V:4 bass nm="Bass" snm="B"
V:1
"^Omnipotens sempiterne Deus""^Adrian Willaert\n(c.1490-1562)" z8 | z8 | z8 | G8 | A4 A4 | B4 B4- | %6
w: |||O-|mni- po-|tens sem\-|
 B2 B2 c4- |[M:2/2] c2 B2 A4 | G8 | z2 G2 A4 | B6 G2 | (d4 c3 B | A4) G4 | z2 c4 (B2- | %14
w: * pi- ter\-|* ne De-|us,|qui hu-|jus di-|e\- * *|* i|ve- ne\-|
 BA) (A4 G2) | (A3 B c2) d2- | d2 c2 B2 (A2- | AG) G4 ^F2 | G4 z4 | z8 | z8 | z8 | z8 | z8 | z8 | %25
w: * * ran\- *|dam * * san\-|* ctam que lae\-|* * ti- ti-|am,|||||||
 z4 z2 d2- | d2 c2 B2 (A2- | AG) G4 ^F2 | G8 | G4 A4 | B4 G4 | z4 G4 | A4 B4 | G4 z2 A2 | %34
w: san\-|* ctam- que lae\-|* * ti- ti-|am,|in be-|a- ti,|in|be- a-|ti A-|
 B2 B2 (c3 B/A/ | B2) (c4 B2) | c4 z4 | z8 | z8 | z2 C2 D2 D2 | (E3 F G2) A2 | F2 G2 (G2 FE | %42
w: po- sto- li * *|* tu\- *|i|||A- po- sto-|li * * tu-|i Bar- tho\- * *|
 F2) F2 (EFGE | F2 G4 ^F2) | G4 z2 A2 | A2 A2 (_B2 A2- | A2 GF) E2 A2 | G2 (c4 BA | G3 A B2 A2- | %49
w: * lo- mae\- * * *||i fe-|sti- vi- ta\- *|* * * te tri-|bu- i\- * *||
 A2 G4 ^F2) | G4 z4 | z8 | G6 A2 | B2 G2 A2 (c2- | cB G2 A4) | (G3 A B2) (A2- | AG c4) B2 | c4 z4 | %58
w: |sti:||da Ec-|cle- si- ae tu\-||ae * * quae\-|* * * su-|mus,|
 z8 | z2 A4 B2 | c2 A2 B4 | A4 (G3 A | B2) (A3 G c2- | c2 B2) A4 | G4 (c4- | c2 BA B2 GA | %66
w: |da Ec-|cle- si- ae|tu- ae *|* quae\- * *|* * su-|mus, quae\-||
 Bc d4) c2 | d4 z4 | z8 | z4 G4- | G2 G2 A4 | (G3 A B2) (c2- | c2 BA B2) (c2- | cB A4) ^G2 | A8- | %75
w: * * * su-|mus,||et|* a- ma-|re * * quod|* * * * cre\-|* * * di-|dit,|
 A8 | z4 A4 | A2 A2 G4 | (^F3 G A2) (B2- | B2 AG A2) (B2- | BA G4) ^F2 | G4 z4 ||[M:3/4] A4 A2 | %83
w: |et|prae- di- ca-|re * * quod|* * * * do\-|* * * cu-|it,|et prae-|
[M:3/4] A2 G4 | (^F3 G A2) | (B4 AG | A2) (B3 A | G3 ^F/E/) F2 ||[M:2/2] G8- | G4 z4 | %90
w: di- ca-|re * *|quod * *|* do\- *|* * * cu-|it,||
[M:2/2] z4 z2 E2- | E2 F2 G2[Q:1/4=99] A2- | %92
w: per|* Chri- stum Do\-|
[Q:1/4=97] A2[Q:1/4=95] G2[Q:1/4=94] (F[Q:1/4=93]E[Q:1/4=92]F[Q:1/4=91]G | %93
w: * mi- num * * *|
[Q:1/4=90] A2)[Q:1/4=88] (G4[Q:1/4=85] ^F2) |[Q:1/4=85] G8 |] %95
w: * no\- *|strum.|
V:2
 G8 | E4 E4 | D8 | E6 (G2- | G2 FE) F4 | G6 D2 | D4 E4 |[M:2/2] C4 D4 | E4 z2 (E2- | %9
w: O-|mni- po-|tens|sem- pi\-|* * * ter-|ne, sem-|pi- ter-|ne De-|us, De\-|
 E2 D2 E2) (D2- | DCB,A, G,4) | z4 z2 C2 | D4 E4- | E2 C2 (G4 | F4 E3 D) | C4 z2 F2- | %16
w: * * * us,||qui|hu- jus|* di- e\-||i ve\-|
 F2 (E3 D) (D2- | D2 C2) D4- | D4 (D3 E | F2 G2 F2 (E2- | ED) D4 C2 | B,2 A,B, CD E2- | %22
w: * ne\- * ran\-|* * dam|* san\- *|* ctam- que lae\-|* * ti\- *||
 ED D4) ^C2 | D4 A,4 | (F3 E DC D2) | (CB,A,G,) A,4 | z2 E2 (D2 F2- | FE) C2 D4- | D2 B,2 D4 | %29
w: * * * ti-|am, lae-|ti\- * * * *|ti\- * * * am,|lae- ti\- *|* * ti- am,|* in be-|
 E4 C4 | z2 D2 E2 E2 | (F3 E/D/ E2) (G2- | G2 ^F2) G2 D2- | D2 E4 F2 | D2 (E3 DEF | G2 FE D4 | %36
w: a- ti|A- po- sto-|li * * * tu\-|* * i, A\-|* po- sto-|li tu\- * * *||
 E4 D4) | G,4 z4 | z8 | z8 | z2 G2 E2 C2 | (D4 E4 | D4) G,4 | z2 D2 D2 D2 | (E2 D4 CB,) | %45
w: |i|||Bar- tho- lo-|mae\- *|* i|fe- sti- vi-|ta\- * * *|
 C2 (D3 E F2- | F2 ED CDEF | D2) E2 (A,3 B, | C2 B,3 G, C2- | C2 B,2) C4 | z2 D2 C2 (F2- | %51
w: te tri\- * *||* bu- i\- *||* * sti,|tri- bu- i\-|
 F2 ED C3 D | E2 D3 C C2- | C2 B,2) C4 | z2 C4 D2 | E2 C2 D2 (F2- | FE C2 D4) | C2 (E3 D D2- | %58
w: ||* * sti:|da Ec-|cle- si- ae tu\-||ae quae\- * *|
 D2) C2 D4 | z8 | C4 E2 (D2- | DC F4) E2 | (F3 E C2) G2- | G2 G2 (C3 D | E2 D2 E2) C2 | D4 D4- | %66
w: * su- mus,||da Ec- cle\-|* * * si-|ae * * tu-|* ae quae\- *|* * * su-|mus, et|
 D2 D2 E4 | (D3 E F2) (G2- | G2 FE F2) (G2- | GF E4) D2 | (E4 A,4) | z8 | z8 | z4 E4 | E2 E2 D4 | %75
w: * a- ma-|re * * quod|* * * * cre\-|* * * di-|dit *|||et|prae- di- ca-|
 (C3 D E2) (F2- | F2 ED E2) (F2- | FE D4) ^C2 | D8 | (D3 E F2) (G2- | G^F E2) D4 | D4 z4 || %82
w: re * * quod|* * * * do\-|* * * cu-|it,|quod * * do\-|* * * cu-|it,|
[M:3/4] F4 F2 |[M:3/4] D2 E4 | D4 D2- | D2 (G3 ^F/E/ | ^F2 G2 D2 | E2) D4 ||[M:2/2] D4 z2 B,2- | %89
w: et prae-|di- ca-|re quod|* do\- * *||* cu-|it, per|
 B,2 C2 D2 E2- |[M:2/2] E2 D2 (CB,CD | E2) (D4 ^C2) | D6 A,2 | A,2 (D3 C A,2) | (B,2 G,2) D4 |] %95
w: * Chri- stum Do\-|* mi- num * * *|* no\- *|strum, Do-|mi- num * *|no\- * strum.|
V:3
 G8 | A4 A4 | B8- | B8 | z4 d4- | d2 d2 d4 | G8 |[M:2/2][K:treble-8] (A8 | B4 c4- | c2 B2 A4 | %10
w: O-|mni- po-|tens||sem\-|* pi- ter-|ne|De\-|||
 G3 A B2 c2- | cA B2) G2 g2- | g2 f2 g2 (c2- | c2 BA e4) | (d3 c B4) | A8 | z8 | z2 G2 A4 | B6 G2 | %19
w: |* * * us, sem\-|* pi- ter- ne||De\- * *|us,||qui hu-|jus di-|
 (d4 c3 _B | A4) G4 | z2 c4 (B2- | BA) (A4 G2) | (A3 B c2) d2- | d2 c2 B2 (A2- | AG) (G4 F2 | %26
w: e\- * *|* i|ve- ne\-|* * ran\- *|dam * * san\-|* ctam- que lae\-|* * ti\- *|
 G3 A Bc d2) | (cBAG A4) | G8 | z2 g4 f2 | e2 (d3 c) (c2- | c2 B2 c2) e2 | d8 | z8 | z8 | %35
w: |ti\- * * * *|am,|san- ctam-|que lae\- * ti\-|* * * ti-|am,|||
 z4 z2 G2- | G2 A4 B2- | B2 G4 A2 | B2 B2 (c3 B/A/ | B2) (c4 B2) | c6 A2- | A2 B4 c2 | (A2 B3 ABc | %43
w: in|* be- a-|* ti A-|po- sto- li * *|* tu\- *|i Bar\-|* tho- lo-|mae\- * * * *|
 d2 cB A4 | B4) A4- | A4 z4 | z8 | z8 | z2 e2 e2 e2 | (f2 e4 dc) | B4 z2 d2 | c2 (f4 ed | %52
w: |* i||||fe- sti- vi-|ta\- * * *|te tri-|bu- i\- * *|
 c2 d2 e2 f2 | d3 e f4) | c4 z4 | z4 z2 d2- | d2 e2 f2 d2 | (ef g3 f d2) | e4 (d3 e | %59
w: ||sti:|da|* Ec- cle- si-|ae * * * *|tu- ae *|
 f2) (e3 d g2- | g2) ^f2 g4 | z2 c4 e2 | d2 (f3 c e2) | (d3 e f2) (e2- | ed) g4 ^f2 | g4 z4 | %66
w: * quae\- * *|* su- mus,|Ec- cle-|si- ae * *|tu\- * * ae|* * quae- su-|mus,|
 G6 A2 | (B3 c) d2 G2 | B2 c2 A2 (e2- | ed c4) B2 | (c3 B cd e2- | e2 dc d2) c2 | A2 (e3 dcB | %73
w: et a-|ma\- * re quod|cre- di- dit et|* * * a-|ma\- * * * *|* * * * re|quod cre\- * * *|
 A4) B4 | A4 z2 f2- | f2 e2 c2 (d2- | d2 cB c2) d2- | d2 A2 B2 G2 | A4 z4 | G4 (d3 c | B2 c2) A4 | %81
w: * di-|dit, et|* prae- di- ca\-|* * * * re|* quod do- cu-|it,|quod do\- *|* * cu-|
 B4 z4 ||[M:3/4] d4 c2 |[M:3/4][K:treble-8] A2 (c3 B | A2) B2 A2 | (d3 c cB | d3 c B2) | c2 A4 || %88
w: it,|et prae-|di- ca\- *|* re quod|do\- * * *||cu- it,|
[M:2/2] z2 B2 c2 d2 | (edcB A2) B2 |[M:2/2][K:treble-8] c2 d2 (e4 | c2 d2) e4 | A2 B2 A2 (d2- | %93
w: per Chri- stum|Do\- * * * * mi-|num * no\-|* * strum,|Do- mi- num no\-|
 dc B2 A4) | G8 |] %95
w: |strum.|
V:4
 z8 | z8 | G,8 | E,4 E,4 | D,8 | G,6 G,2 | G,4 E,4 |[M:2/2] F,8 | E,4 (C,3 D, | E,F, G,4) F,2 | %10
w: ||O-|mni- po-|tens|sem- pi-|ter- ne|De-|us, sem\- *|* * * pi-|
 (G,6 F,E,) | F,2 G,2 C,4 | z8 | z8 | z2 D,2 E,4 | F,6 D,2 | (A,4 G,2 F,2 | E,4) D,4 | %18
w: ter\- * *|ne De- us,|||qui hu-|jus di-|e\- * *|* i|
 G,4 G,2 (_B,2- | B,2 A,G, A,3 G, | F,2 E,D,) (E,3 F, | G,2) A,4 G,2 | F,2 D,2 E,2 E,2 | %23
w: ve- ne- ran\-||* * * dam *|* san- ctam-|que lae- ti- ti-|
 D,4 z2 (D,2- | D,E, F,2 G,2 F,2 | E,4 D,4 | (E,3 F, G,2) D,2 | F,2 E,2 D,4 | z2 D4 B,2 | %29
w: am, san\-||* ctam-|que * * lae-|ti- ti- am,|in be-|
 C3 B, A,4 | G,3 F, E,2 D,C, | D,4 C,4 | z4 (G,3 A,) | B,2 C2) A,2 F,2 | (G,4 A,4) | E,4 z4 | %36
w: a\- * *||* ti|A\- *|po\- * sto- li|tu\- *|i,|
 C,4 D,4 | E,4 C,4 | z2 G,2 E,2 F,2 | (G,2 F,E, F,2 G,2) | (C,3 D, E,2 F,2) | D,2 G,2 E,2 C,2 | %42
w: in be-|a- ti|A- po- sto-|li * * * *|tu\- * * *|i Bar- tho- lo-|
 (D,4 E,4) | D,8 | G,4 F,4- | F,2 D,2 (G,2 F,2) | D,2 A,2 A,2 A,2 | (_B,2 A,4 G,F,) | %48
w: mae\- *|i|Bar- tho\-|* lo- mae\- *|i fe- sti- vi-|ta\- * * *|
 (E,3 F, G,2) A,2 | (F,2 G,2) A,4 | (G,3 F, E,2) D,2 | (F,3 G, A,B,) (C2- | C2 B,2) C2 F,2 | %53
w: te * * tri-|bu\- * i-|sti, * * tri-|bu\- * * * i\-|* * sti, tri-|
 G,4 (F,4- | F,2 E,2 F,4) | C,4 z4 | z8 | z4 G,4- | G,2 A,2 B,2 G,2 | (A,B, C3 B, G,2) | A,4 G,4 | %61
w: bu- i\-||sti:||da|* Ec- cle- si-|ae * * * *|tu- ae|
 (F,4 C,4 | D,3 E, F,2) C,2 | G,4 (A,3 B, | C2 B,2) A,4 | G,8 | z8 | G,4 F,2 (E,2- | %68
w: quae\- *|* * * su-|mus, quae\- *|* * su-|mus,||et a- ma\-|
 E,2 D,C, D,2 C,2 | E,3 F, G,4) | C,4 z2 (C2- | C2 B,A, G,2) (A,2- | A,2 G,F, G,2 A,2 | F,4) E,4 | %74
w: ||re quod|* * * * cre\-||* di-|
 A,4 D,4 | A,6 D,2 | A,4 A,2 D,2 | (F,4 E,4 | D,3 E, ^F,2 G,2- | G,2 F,E, D,2 G,2- | G,2 C,2) D,4 | %81
w: dit, et|prae- di-|ca- re quod|do\- *|||* * cu-|
 G,4 z4 ||[M:3/4] D,4 F,2 |[M:3/4] F,2 C,4 | (D,3 E, ^F,2) | G,2 (E,4 | D,2 G,4 | C,2) D,4 || %88
w: it,|et prae-|di- ca-|re * *|quod do\-||* cu-|
[M:2/2] G,4 z4 | E,4 F,2 G,2 |[M:2/2] A,2 _B,2 A,4 | z4 z2 A,2 | F,2 G,2 D,4- | D,8 | G,8 |] %95
w: it,|per Chri- stum|Do- mi- num|Do-|mi- num no\-||strum.|

